!!!COM: Bach, Johann Sebastian
!!!OPR: Joh. Seb. Bachs vierstimmige Choralgesänge
!!!XEN: Four-part Chorales
!!!OTL: 132. Nun bitten wir den heiligen Geist
!!!SCT: BWV 385
!!!SCA: Thematisch-systematisches Verzeichnis der musikalischen Werke Johann Sebastian Bach: Bach-Werke-Verzeichnis (Schmieder)
!!!YOR: Bach Gesellschaft Edition xxxix
!!!ENC: Steven Rasmussen
!!!CDT: 1685/3//-1750/7/28/
!!!OCY: Deutschland
!!!YEC: Copyright (c) 1994, 2000 Center for Computer Assisted Research in the Humanities
!!!YEM: Rights to all derivative editions reserved
!!!YEN: United States of America
**kern	**silbe	**kern	**kern	**kern	**silbe
*I:[BASSO]	*I:[BASSO]	*I:[TENORE]	*I:[ALTO]	*I:[SOPRANO]	*I:[SOPRANO]
*clefF4	*	*clefGv2	*clefG2	*clefG2	*
*k[f#c#g#]	*	*k[f#c#g#]	*k[f#c#g#]	*k[f#c#g#]	*
*A:	*	*A:	*A:	*A:	*
*M4/4	*	*M4/4	*M4/4	*M4/4	*
4A	.	4c#	4e	4a	Nun
=1	=1	=1	=1	=1	=1
8G#L	.	8BL	4e	4b	bit-
8F#J	.	8AJ	.	.	.
8EL	.	4G#	4e	4b	-ten
8DJ	.	.	.	.	.
4C#	.	4A	4e	4a	wir
[4D	den	4A	8dL	4f#	den
.	.	.	8c#J	.	.
=2	=2	=2	=2	=2	=2
4D]	.	4G#	4B	4e	hei-
8C#L	hei-	8AL	8c#L	8f#L	.
8BBJ	.	8BJ	8dJ	8g#J	.
8C#L	-li-	(8E	4e	4a	-li-
8AAJ	.	4A)	.	.	.
4E	-gen	.	4e	4b	-gen
.	.	8G#	.	.	.
=3	=3	=3	=3	=3	=3
2.AA;	.	2.c#;	2.e;	2.a;	Geist
4A	.	[4e	4a	8cc#L	um
.	.	.	.	8ddJ	.
=4	=4	=4	=4	=4	=4
4G#	.	4e]	8bL	4ee	.
.	.	.	8cc#J	.	.
4F#	.	4A	8ddL	4ff#	den
.	.	.	8cc#J	.	.
4G#	.	4B	4b	4ee	rech-
4A	.	8c#L	4a	4cc#	-ten
.	.	8dJ	.	.	.
=5	=5	=5	=5	=5	=5
4C#	.	4e	4a	4a	Glau-
8DL	.	4A	4d	8f#L	-ben
8EJ	.	.	.	8g#J	.
8F#L	.	4.A	4c#	4a	al-
8AJ	.	.	.	.	.
8DL	.	.	8f#L	4b	-ler
8EJ	.	8G#	8eJ	.	.
=6	=6	=6	=6	=6	=6
2AA;	.	2E;	2c#;	2a;	meist,
8AL	.	4e	4a	4cc#	dass
8G#J	.	.	.	.	.
8F#L	.	4g#	4b	4cc#	er
8E#J	.	.	.	.	.
=7	=7	=7	=7	=7	=7
8F#L	.	4f#	8aL	4cc#	uns
8EJ	.	.	8g#J	.	.
4D	.	8F#L	4f#	4b	be-
.	.	8G#J	.	.	.
2C#	.	4A	4f#	2cc#	-hÃ¼-
.	.	4G#	4e#	.	.
=8	=8	=8	=8	=8	=8
2F#;	.	2F#;	2c#;	2a;	-te
4r	.	4r	4r	4r	.
4F#	.	4c#	4f#	4a	an
=9	=9	=9	=9	=9	=9
8EL	.	4e	4g#	4b	un-
8DJ	.	.	.	.	.
8C#L	.	4e	4g#	4b	-serm
8BBJ	.	.	.	.	.
2AA	.	2e	8aL	2cc#	En-
.	.	.	8f#J	.	.
.	.	.	4gn	.	.
=10	=10	=10	=10	=10	=10
2D;	.	2d;	2f#;	2a;	-de,
4BB	.	8dL	4f#	4b	wenn
.	.	8c#J	.	.	.
4E	.	4B	4g#	4b	wir
=11	=11	=11	=11	=11	=11
4AA	.	8AL	8aL	8cc#L	heim-
.	.	8c#J	8g#J	8bJ	.
8BBL	.	8dL	8f#L	8aL	-fahr'n
8C#J	.	8eJ	8eJ	8g#J	.
4D	.	4A	4d	4f#	aus
4BB	.	8G#L	4d	4b	die-
.	.	8F#J	.	.	.
=12	=12	=12	=12	=12	=12
4C#	.	4E	8c#L	4b	-sem
.	.	.	8g#J	.	.
8D#L	.	8F#L	8f#L	8aL	E-
8EJ	.	8G#J	8eJ	8g#J	.
4AA	.	4c#	4e	2f#	-len-
4BB	.	8BL	4d#	.	.
.	.	8AJ	.	.	.
=13	=13	=13	=13	=13	=13
2E;	.	2G#;	2B;	2e;	-de.
4D	.	4A	4d	4f#	Ky-
8C#L	.	4B	4d	4g#	-ri-
8BBJ	.	.	.	.	.
=14	=14	=14	=14	=14	=14
8C#L	.	(8E	4e	4a	-e
8AAJ	.	4A)	.	.	.
4EE	.	.	8eL	4b	e-
.	.	8G#	8dJ	.	.
4AA;	.	4E;	4c#;	4a;	-leis'.
==|!	==|!	==|!	==|!	==|!	==|!
*-	*-	*-	*-	*-	*-
!!!RWG: Key is interpreted using the Humdrum key tool.
!!!URL-pdf: https://s9.imslp.org/files/imglnks/usimg/6/6b/IMSLP24489-PMLP09471-CCARH_Bach_Chorales.pdf#page=94 Musedata edition
!!!URL-pdf: https://s9.imslp.org/files/imglnks/usimg/7/7a/IMSLP04155-Bach_-_BGA_253-438.pdf#page=73 	Bach-Gesellschaft Ausgabe, Band 39 (pp.175-276) Leipzig: Breitkopf und Härtel, 1892. Plate B.W. XXXIX.
!!!END: 1994/07/19
!!!EMD: Converted from MuseData to Humdrum Dec 19, 2000, by Andreas Kornstaedt using muse2kern.
!!!EED: Craig Stuart Sapp
!!!EEV: 2024/03/31
!!!ONB: Some non-unicode characters
!!!filter-keyboard: satb2gs
